public/avatar/hat/221.svg

<svg xmlns:xlink="http://www.w3.org/1999/xlink" height="92.9" width="100.7" xmlns="http://www.w3.org/2000/svg"><g transform="translate(38.65 49.75)"><use height="19.95" transform="translate(-18.45 -2)" width="36.1" xlink:href="#a"/><use height="23.4" transform="translate(-20.75 -13.8)" width="43.85" xlink:href="#b"/></g><defs><use height="19.95" width="36.1" xlink:href="#c" id="a"/><use height="23.4" width="43.85" xlink:href="#d" id="b"/><g id="c" fill-rule="evenodd"><path d="m1.2-9 3.2-.7-.1 1q-.05 1 .5.95L9.4-8l-.3.8q-.2.9.1 1.35 1 1.4 5 2.6-1.25.8 0 2.35 1.1 1.4 2.75 2.05l-2.9.85 4 2.9q-1.75.75-3.1.4.3 1.15 3.1 4.05l-1.9-.6-2 .15-.65.35-.3-2.2-.8-3q-.15-1.05-.95-.3l-.8.9Q9.65 3 9.4 1.4q-1 2.9-2 3.15-.7-3.3-2-4.3-1.05.9-2.25 2.8l-1 1.75L.8.75-.6 4.5Q-1.05 1.75-2.2.15l-3.25 4.1L-7.2 0l-1.4 6.3-2.2-3.3-.35 2.05q-.05 2.25 1.3 3.1l-2.75-.5-1.95 1.45-1.7.9 1.9-3.5-3.7-1.2q2.35-.9 4.5-3.9L-16.7.25q2.6-.1 5.85-4.25.8-1.1 1.05-3.5l3.9.1q1.25-.5 3.2-2.55l1.2.55q1.45.55 2.7.4" fill="#260000" transform="translate(18.05 9.95)"/><path d="m8.6-7.4-.15.8q0 .6.3 1.05.7 1.1 4.5 2.55l-.2.75v.15Q13.2-.55 15.5 1l-2.5.7.6.65 2.95 2.3-2.2.1 2.05 3.5q-2.05-.5-2.55.35l-.1-1.85q-.45 0-.8-2.75-.1-.85-.8-1.1-.6-.1-1.4.7-1.1-2.25-1.3-3.8l-.6 1.4L7.7 3.55Q6.95.7 5.7-.2l-.35-.3L5-.2Q3.65 1 2.25 3.4L.85-.95-.5 2.55Q-1 .85-1.75-.2l-.45-.55-3.1 3.9-2-4.85-.45 1.55L-9 4.7l-1.95-3-.4 1.1-.35 2.5q0 1.15.45 2.1l-1.95.25-1.95 1.15 1.35-2.25.05-.4-.4-.2-2.4-.8q1.9-1.25 3.45-3.4l.45-.6-2.3-.85q2.35-1.1 4.55-3.95.7-.9 1.1-3.25 2.4.4 3.6.05 1.2-.5 3.1-2.4 2.05 1.05 3.9.8l2.45-.5-.05.2q0 .85.35 1.2.3.35.75.35l3.8-.2" fill="#793a00" transform="translate(18.05 9.95)"/><path d="m-4.8-3.5-.65 4.85-2.8-5.8L-9.4 2.7-11.15 1l-.75 2.45q-.6 2.6.1 3.4l-.9-.1-1.1.7q.95-2.6.7-2.75l-2.95.3 2.5-1.5q.75-.9 1.5-2.75l-2.55-.5 1.4-.5q1.55-.7 2.35-1.7 1.3-1.55 2.2-4.3l3.55.05 2.55-2.25-1.05 2.7L-.55.75l-2.05-2.4Q-4.65-4-4.8-3.5M8.25-7.2l-.65.35q-.7.45-.7.9t2.25 1.6l2.25 1-2.6-.75.75 1q1.1 1.1 2.55 1.7-.65.3-2.9-.9L7.1-3.55l.55 6.1L6.5-.5 5.25-2.8 2.3 2.4q1-3.8-1.7-8.35l3.1 1.1Q2.25-7.3.6-7.8q.95-.1 2.75-1l-.4.8q-.3.85.25 1l5.05-.2" fill="#955b30" transform="translate(18.05 9.95)"/><path d="m-2.05-6.45 1.75.4-.8 3.5q-.6-.95-.85-2.5l-.1-1.4m.2-1.7 1.75.05 1.95 1.95-3.7-2m14.2 9.35 4.2 3.45q-1.75-.4-3.15-1.35l-1.1-.85.05-1.25M11.3 0l-.55 3.6-1.4-4.5 1.95.9m1.9-.85L15.5 1Q14.45.95 13.15.25l-1.1-.75 1.15-.35m.5 5.55.65 1.4q.8 1.45 1.4 1.75Q14.5 7.6 14 6.15l-.3-1.45" fill="#955b30" transform="translate(18.05 9.95)"/><path d="m-9.75-1.05.05 3-.75-1.75L-14 .15l3.45-2.6-.7 2.1 1.5-.7M-16.05 5l3.2-2.65-.75 1.7-2.45.95m7.3-11.45 3.65.25-1.75.9-1.9-1.15m6.7 0 .75 1.05.2 2.85q-.7-.7-.9-2.35l-.05-1.55m4.35 8.5q.5-2.7.15-4.45.95.8 1.25 2.45l-1.4 2M5.45-2.7 7.5-1.35l.15 3.5-2.2-4.85M9.5.35l.95.55.3 2.7L9.5.35m-5-7.3 3.75-.25-2.3 1.4-3-1.3 1.55.15m-3.7-1 2.55-.85q-.4.85-.45 1.25l-2.1-.4m0 1.4q-2.05-.5-2.75-1.9l2.2.9.55 1m-7 4.85 1.1-1.65-.35 4.7-2.4-5.45 1.65 2.4m9.1-2.55 1.25.4.25 2-1.5-2.4m-6.95-1.5.5 1.8Q-2.9-2-2.2-1.2l-2.1-2.3.25-2.25" fill="#c78149" transform="translate(18.05 9.95)"/><path d="m.15-3 1.5.8L1.3.75.15-3" fill="#955b30" transform="translate(18.05 9.95)"/><path d="m12.1-1.4-2.3-.8-.55-.5q-.5-.6-.2-1.05L12.1-1.4" fill="#c78149" transform="translate(18.05 9.95)"/></g><g id="d" fill-rule="evenodd"><path d="M16.15-2.6q-.5-3.4-.4-4.1.15-.85.85-1 2.5-.45 4.95 10.75 1.45 7.5-2.65 8.35-4.2.85-7.7-.55h-.05q-1.35.05-5.55-1.8l-6.75-.35L-7 7.45l-5.35.25q-3.65.4-7.6-1.55-3.75-1.9-.3-8.75 1-2.1 3.25-5.25 3.1-4.4 4.35-3.75.6.3.55 1.15-.1.6-1.45 3.85-2.15 4.75-2.35 6.3l.05.6q.8 1 3.4 1.3.7-.8 2.4-.35 4.5-6.3 10.6-5.45 6.35.9 9.15 8.3 2.5-.45 3.15.95 2.7.35 3.65-.35l.2-.65q.2-1.6-.55-6.65" fill="#1a171b" transform="translate(21.9 11.7)"/><path d="M9.8 7.8q-4.65.85-10.95 0-3.9-.55-7.45-1.65l-2.75-1.05 2.9-4.65Q-4.6-4.05.35-3.4q4.95.7 7.7 6 1.4 2.7 1.75 5.2" fill="#585858" transform="translate(21.9 11.7)"/><path d="m-2.4 5.2-6.15-1.25q2.85-5.8 7.5-5.9L-2.4 5.2m3.25.45L1.4-1.6Q6.1-.25 7.45 6.1l-6.6-.45" fill="#959792" transform="translate(21.9 11.7)"/><path d="M-9.3 2.4q2.1.65 2.55 2.35.45 1.6-.95 1.9l-4.45.2q-.7-.25-.45-2.15.2-1.75.7-2.55l1.5-.15q.6.15 1.1.4M-1.9 7l1.75-9.55.75.2-.9 9.5L-1.9 7" fill="#959792" transform="translate(21.9 11.7)"/><path d="m-18.7-3.95 3.45-4.95q1.8-2.15 2.15-2 .3.15-1.95 5.4-2.3 5.4-1.5 6.35Q-15.1 2.5-10.9 2.6q2 1.15.3 3.8-3.7 1.65-9.05-1.05-3.45-1.75.95-9.3" fill="#d7d7d7" transform="translate(21.9 11.7)"/><path d="m9.45 4.95 1.2-.1q1.25 0 1.4.55.3.85.05 2.6-.3 1.95-1.05 2-1.65.1-4.45-1.85-.8-.5-.05-1.75.85-1.4 2.9-1.45" fill="#959792" transform="translate(21.9 11.7)"/><path d="M16.65-6.9q7.85 16.25 2 17.4L12 10.25 9.7 9.1q-.25-.75-.2-1.55.05-1.6 1.45-2l2.3.35q2.5.25 3.65-.55 1.05-.7.25-6.5-.8-5.7-.5-5.75" fill="#d7d7d7" transform="translate(21.9 11.7)"/><path d="M-.4-2.95q-5-.2-8.6 5.35l-.65-.35L-7.3-.8q3.15-2.85 7.25-2.65l-.35.5m-.85 10L-1.9 7l1.6-9.6.4.15-1.35 9.5" fill="#e3e1de" transform="translate(21.9 11.7)"/><path d="m-5.85 1.9-1.1 1.95-1.1-.95q3.25-4.9 7-4.85-3.05 1.6-4.8 3.85M10.6 5.05l-.25.3q-.75.35-1.1 1.05L8.9 8.25q-.9.45-.25-1.8.5-2 1.95-1.4" fill="#e3e1de" transform="translate(21.9 11.7)"/><path d="M1.15-2.85q5.25 1.2 7.6 7.8l-1.05.4Q6.3-.95 1.1-2.4l.05-.45M.4 6.7h5.3l-.55.85-4.8.05.05-.9" fill="#282626" transform="translate(21.9 11.7)"/><path d="M-10.2 6.55q1.05-.85 1.1-1.65l1.9.05q.1.7-.35 1.05l-2.65.55M6.6 8l3.1 1.1q1.25.85.15.55L6.6 8" fill="#585858" transform="translate(21.9 11.7)"/><path d="M-10.7 2.2q.85-.65 1.85 1.25.25.5-.2.8-.45.3-.5-.3-.05-.9-.7-1.35l-.45-.4" fill="#e3e1de" transform="translate(21.9 11.7)"/><path d="M3.75 3.15Q4.3 5.6 3.8 5.6l-2.5-.3.5-6.3Q3.1.5 3.75 3.15" fill="#585858" transform="translate(21.9 11.7)"/><path d="m-.4-2.95.35-.5q6.2.55 8.3 6.6-2.5-3.9-5.8-5.4l-2.85-.7" fill="#959792" transform="translate(21.9 11.7)"/><path d="M-17.35-3.2Q-18.6-.05-19.5 3.3q-1.55-.25-.95-3 .65-3.15 4-7.6 2.9-3.9 1.8-1.55l-2.7 5.65m5.05 5.8q1.95 1.35-.15.85-2-.5-3.8-2.25 1.4 1.1 3.95 1.4m-6.4 3.15 1.75.3 4.3.75Q-15.6 7-18 6.1l-.7-.35m35.3-10.2Q16.25-8.5 18-2.5q2.1 7.1.25 9.5-1.05 1.3-2.65.95l.9-1.15q1.25-1.6 1-3.6l-.9-7.65" fill="#fff" transform="translate(21.9 11.7)"/><path d="m11.3 5.8 2.1.1 3.3-.45q-3.15 2.7-5.45 2.05-.85-.25-.85-.8-.05-.55.9-.9m7.55 4.65q-2.8 1.15-7.35-.4-2.9-1.4-.25-.75l4.65 1.2 2.95-.05" fill="#fff" transform="translate(21.9 11.7)"/></g></defs></svg>

<?xml version="1.0" encoding="UTF-8" standalone="no"?>
<svg xmlns:xlink="http://www.w3.org/1999/xlink" height="92.9px" width="100.7px" xmlns="http://www.w3.org/2000/svg">
  <g transform="matrix(1.0, 0.0, 0.0, 1.0, 38.65, 49.75)">
    <use height="19.95" transform="matrix(1.0, 0.0, 0.0, 1.0, -18.45, -2.0)" width="36.1" xlink:href="#sprite0"/>
    <use height="23.4" transform="matrix(1.0, 0.0, 0.0, 1.0, -20.75, -13.8)" width="43.85" xlink:href="#sprite1"/>
  </g>
  <defs>
    <g id="sprite0" transform="matrix(1.0, 0.0, 0.0, 1.0, 18.05, 9.95)">
      <use height="19.95" transform="matrix(1.0, 0.0, 0.0, 1.0, -18.05, -9.95)" width="36.1" xlink:href="#shape0"/>
    </g>
    <g id="shape0" transform="matrix(1.0, 0.0, 0.0, 1.0, 18.05, 9.95)">
      <path d="M1.2 -9.0 L4.4 -9.7 4.3 -8.7 Q4.25 -7.7 4.8 -7.75 L9.4 -8.0 9.1 -7.2 Q8.9 -6.3 9.2 -5.85 10.2 -4.45 14.2 -3.25 12.95 -2.45 14.2 -0.9 15.3 0.5 16.95 1.15 L14.05 2.0 18.05 4.9 Q16.3 5.65 14.95 5.3 15.25 6.45 18.05 9.35 L16.15 8.75 14.15 8.9 13.5 9.25 13.2 7.05 12.4 4.05 Q12.25 3.0 11.45 3.75 L10.65 4.65 Q9.65 3.0 9.4 1.4 8.4 4.3 7.4 4.55 6.7 1.25 5.4 0.25 4.35 1.15 3.15 3.05 L2.15 4.8 0.8 0.75 -0.6 4.5 Q-1.05 1.75 -2.2 0.15 L-5.45 4.25 -7.2 0.0 -8.6 6.3 -10.8 3.0 -11.15 5.05 Q-11.2 7.3 -9.85 8.15 L-12.6 7.65 -14.55 9.1 -16.25 10.0 -14.35 6.5 -18.05 5.3 Q-15.7 4.4 -13.55 1.4 L-16.7 0.25 Q-14.1 0.15 -10.85 -4.0 -10.05 -5.1 -9.8 -7.5 L-5.9 -7.4 Q-4.65 -7.9 -2.7 -9.95 L-1.5 -9.4 Q-0.05 -8.85 1.2 -9.0" fill="#260000" fill-rule="evenodd" stroke="none"/>
      <path d="M8.6 -7.4 L8.45 -6.6 Q8.45 -6.0 8.75 -5.55 9.45 -4.45 13.25 -3.0 L13.05 -2.25 13.05 -2.1 Q13.2 -0.55 15.5 1.0 L13.0 1.7 13.6 2.35 16.55 4.65 14.35 4.75 16.4 8.25 Q14.35 7.75 13.85 8.6 L13.75 6.75 Q13.3 6.75 12.95 4.0 12.85 3.15 12.15 2.9 11.55 2.8 10.75 3.6 9.65 1.35 9.45 -0.2 L8.85 1.2 7.7 3.55 Q6.95 0.7 5.7 -0.2 L5.35 -0.5 5.0 -0.2 Q3.65 1.0 2.25 3.4 L0.85 -0.95 -0.5 2.55 Q-1.0 0.85 -1.75 -0.2 L-2.2 -0.75 -5.3 3.15 -7.3 -1.7 -7.75 -0.15 -9.0 4.7 -10.95 1.7 -11.35 2.8 -11.7 5.3 Q-11.7 6.45 -11.25 7.4 L-13.2 7.65 -15.15 8.8 -13.8 6.55 -13.75 6.15 -14.15 5.95 -16.55 5.15 Q-14.65 3.9 -13.1 1.75 L-12.65 1.15 -14.95 0.3 Q-12.6 -0.8 -10.4 -3.65 -9.7 -4.55 -9.3 -6.9 -6.9 -6.5 -5.7 -6.85 -4.5 -7.35 -2.6 -9.25 -0.55 -8.2 1.3 -8.45 L3.75 -8.95 3.7 -8.75 Q3.7 -7.9 4.05 -7.55 4.35 -7.2 4.8 -7.2 L8.6 -7.4" fill="#793a00" fill-rule="evenodd" stroke="none"/>
      <path d="M-4.8 -3.5 L-5.45 1.35 -8.25 -4.45 -9.4 2.7 -11.15 1.0 -11.9 3.45 Q-12.5 6.05 -11.8 6.85 L-12.7 6.75 -13.8 7.45 Q-12.85 4.85 -13.1 4.7 L-16.05 5.0 -13.55 3.5 Q-12.8 2.6 -12.05 0.75 L-14.6 0.25 -13.2 -0.25 Q-11.65 -0.95 -10.85 -1.95 -9.55 -3.5 -8.65 -6.25 L-5.1 -6.2 -2.55 -8.45 -3.6 -5.75 -0.55 0.75 -2.6 -1.65 Q-4.65 -4.0 -4.8 -3.5" fill="#955b30" fill-rule="evenodd" stroke="none"/>
      <path d="M8.25 -7.2 L7.6 -6.85 Q6.9 -6.4 6.9 -5.95 6.9 -5.5 9.15 -4.35 L11.4 -3.35 8.8 -4.1 9.55 -3.1 Q10.65 -2.0 12.1 -1.4 11.45 -1.1 9.2 -2.3 L7.1 -3.55 7.65 2.55 6.5 -0.5 5.25 -2.8 2.3 2.4 Q3.3 -1.4 0.6 -5.95 L3.7 -4.85 Q2.25 -7.3 0.6 -7.8 1.55 -7.9 3.35 -8.8 L2.95 -8.0 Q2.65 -7.15 3.2 -7.0 L8.25 -7.2" fill="#955b30" fill-rule="evenodd" stroke="none"/>
      <path d="M-2.05 -6.45 L-0.3 -6.05 -1.1 -2.55 Q-1.7 -3.5 -1.95 -5.05 L-2.05 -6.45" fill="#955b30" fill-rule="evenodd" stroke="none"/>
      <path d="M-1.85 -8.15 L-0.1 -8.1 1.85 -6.15 -1.85 -8.15" fill="#955b30" fill-rule="evenodd" stroke="none"/>
      <path d="M12.35 1.2 L16.55 4.65 Q14.8 4.25 13.4 3.3 L12.3 2.45 12.35 1.2" fill="#955b30" fill-rule="evenodd" stroke="none"/>
      <path d="M11.3 0.0 L10.75 3.6 9.35 -0.9 11.3 0.0" fill="#955b30" fill-rule="evenodd" stroke="none"/>
      <path d="M13.2 -0.85 L15.5 1.0 Q14.45 0.95 13.15 0.25 L12.05 -0.5 13.2 -0.85" fill="#955b30" fill-rule="evenodd" stroke="none"/>
      <path d="M13.7 4.7 L14.35 6.1 Q15.15 7.55 15.75 7.85 14.5 7.6 14.0 6.15 L13.7 4.7" fill="#955b30" fill-rule="evenodd" stroke="none"/>
      <path d="M-9.75 -1.05 L-9.7 1.95 -10.45 0.2 -14.0 0.15 -10.55 -2.45 -11.25 -0.35 -9.75 -1.05" fill="#c78149" fill-rule="evenodd" stroke="none"/>
      <path d="M-16.05 5.0 L-12.85 2.35 -13.6 4.05 -16.05 5.0" fill="#c78149" fill-rule="evenodd" stroke="none"/>
      <path d="M-8.75 -6.45 L-5.1 -6.2 -6.85 -5.3 -8.75 -6.45" fill="#c78149" fill-rule="evenodd" stroke="none"/>
      <path d="M-2.05 -6.45 L-1.3 -5.4 -1.1 -2.55 Q-1.8 -3.25 -2.0 -4.9 L-2.05 -6.45" fill="#c78149" fill-rule="evenodd" stroke="none"/>
      <path d="M2.3 2.05 Q2.8 -0.65 2.45 -2.4 3.4 -1.6 3.7 0.05 L2.3 2.05" fill="#c78149" fill-rule="evenodd" stroke="none"/>
      <path d="M5.45 -2.7 L7.5 -1.35 7.65 2.15 5.45 -2.7" fill="#c78149" fill-rule="evenodd" stroke="none"/>
      <path d="M9.5 0.35 L10.45 0.9 10.75 3.6 9.5 0.35" fill="#c78149" fill-rule="evenodd" stroke="none"/>
      <path d="M4.5 -6.95 L8.25 -7.2 5.95 -5.8 2.95 -7.1 4.5 -6.95" fill="#c78149" fill-rule="evenodd" stroke="none"/>
      <path d="M0.8 -7.95 L3.35 -8.8 Q2.95 -7.95 2.9 -7.55 L0.8 -7.95" fill="#c78149" fill-rule="evenodd" stroke="none"/>
      <path d="M0.8 -6.55 Q-1.25 -7.05 -1.95 -8.45 L0.25 -7.55 0.8 -6.55" fill="#c78149" fill-rule="evenodd" stroke="none"/>
      <path d="M-6.2 -1.7 L-5.1 -3.35 -5.45 1.35 -7.85 -4.1 -6.2 -1.7" fill="#c78149" fill-rule="evenodd" stroke="none"/>
      <path d="M2.9 -4.25 L4.15 -3.85 4.4 -1.85 2.9 -4.25" fill="#c78149" fill-rule="evenodd" stroke="none"/>
      <path d="M-4.05 -5.75 L-3.55 -3.95 Q-2.9 -2.0 -2.2 -1.2 L-4.3 -3.5 -4.05 -5.75" fill="#c78149" fill-rule="evenodd" stroke="none"/>
      <path d="M0.15 -3.0 L1.65 -2.2 1.3 0.75 0.15 -3.0" fill="#955b30" fill-rule="evenodd" stroke="none"/>
      <path d="M12.1 -1.4 L9.8 -2.2 9.25 -2.7 Q8.75 -3.3 9.05 -3.75 L12.1 -1.4" fill="#c78149" fill-rule="evenodd" stroke="none"/>
    </g>
    <g id="sprite1" transform="matrix(1.0, 0.0, 0.0, 1.0, 21.9, 11.7)">
      <use height="23.4" transform="matrix(1.0, 0.0, 0.0, 1.0, -21.9, -11.7)" width="43.85" xlink:href="#shape1"/>
    </g>
    <g id="shape1" transform="matrix(1.0, 0.0, 0.0, 1.0, 21.9, 11.7)">
      <path d="M16.15 -2.6 Q15.65 -6.0 15.75 -6.7 15.9 -7.55 16.6 -7.7 19.1 -8.15 21.55 3.05 23.0 10.55 18.9 11.4 14.7 12.25 11.2 10.85 L11.15 10.85 Q9.8 10.9 5.6 9.05 L-1.15 8.7 -7.0 7.45 -12.35 7.7 Q-16.0 8.1 -19.95 6.15 -23.7 4.25 -20.25 -2.6 -19.25 -4.7 -17.0 -7.85 -13.9 -12.25 -12.65 -11.6 -12.05 -11.3 -12.1 -10.45 -12.2 -9.85 -13.55 -6.6 -15.7 -1.85 -15.9 -0.3 L-15.85 0.3 Q-15.05 1.3 -12.45 1.6 -11.75 0.8 -10.05 1.25 -5.55 -5.05 0.55 -4.2 6.9 -3.3 9.7 4.1 12.2 3.65 12.85 5.05 15.55 5.4 16.5 4.7 L16.7 4.05 Q16.9 2.45 16.15 -2.6" fill="#1a171b" fill-rule="evenodd" stroke="none"/>
      <path d="M9.8 7.8 Q5.15 8.65 -1.15 7.8 -5.05 7.25 -8.6 6.15 L-11.35 5.1 -8.45 0.45 Q-4.6 -4.05 0.35 -3.4 5.3 -2.7 8.05 2.6 9.45 5.3 9.8 7.8" fill="#585858" fill-rule="evenodd" stroke="none"/>
      <path d="M-2.4 5.2 L-8.55 3.95 Q-5.7 -1.85 -1.05 -1.95 L-2.4 5.2" fill="#959792" fill-rule="evenodd" stroke="none"/>
      <path d="M0.85 5.65 L1.4 -1.6 Q6.1 -0.25 7.45 6.1 L0.85 5.65" fill="#959792" fill-rule="evenodd" stroke="none"/>
      <path d="M-9.3 2.4 Q-7.2 3.05 -6.75 4.75 -6.3 6.35 -7.7 6.65 L-12.15 6.85 Q-12.85 6.6 -12.6 4.7 -12.4 2.95 -11.9 2.15 L-10.4 2.0 Q-9.8 2.15 -9.3 2.4" fill="#959792" fill-rule="evenodd" stroke="none"/>
      <path d="M-1.9 7.0 L-0.15 -2.55 0.6 -2.35 -0.3 7.15 -1.9 7.0" fill="#959792" fill-rule="evenodd" stroke="none"/>
      <path d="M-18.7 -3.95 L-15.25 -8.9 Q-13.45 -11.05 -13.1 -10.9 -12.8 -10.75 -15.05 -5.5 -17.35 -0.1 -16.55 0.85 -15.1 2.5 -10.9 2.6 -8.9 3.75 -10.6 6.4 -14.3 8.05 -19.65 5.35 -23.1 3.6 -18.7 -3.95" fill="#d7d7d7" fill-rule="evenodd" stroke="none"/>
      <path d="M9.45 4.95 L10.65 4.85 Q11.9 4.85 12.05 5.4 12.35 6.25 12.1 8.0 11.8 9.95 11.05 10.0 9.4 10.1 6.6 8.15 5.8 7.65 6.55 6.4 7.4 5.0 9.45 4.95" fill="#959792" fill-rule="evenodd" stroke="none"/>
      <path d="M16.65 -6.9 Q24.5 9.35 18.65 10.5 L12.0 10.25 9.7 9.1 Q9.45 8.35 9.5 7.55 9.55 5.95 10.95 5.55 L13.25 5.9 Q15.75 6.15 16.9 5.35 17.95 4.65 17.15 -1.15 16.35 -6.85 16.65 -6.9" fill="#d7d7d7" fill-rule="evenodd" stroke="none"/>
      <path d="M-0.4 -2.95 Q-5.4 -3.15 -9.0 2.4 L-9.65 2.05 -7.3 -0.8 Q-4.15 -3.65 -0.05 -3.45 L-0.4 -2.95" fill="#e3e1de" fill-rule="evenodd" stroke="none"/>
      <path d="M-1.25 7.05 L-1.9 7.0 -0.3 -2.6 0.1 -2.45 -1.25 7.05" fill="#e3e1de" fill-rule="evenodd" stroke="none"/>
      <path d="M-5.85 1.9 L-6.95 3.85 -8.05 2.9 Q-4.8 -2.0 -1.05 -1.95 -4.1 -0.35 -5.85 1.9" fill="#e3e1de" fill-rule="evenodd" stroke="none"/>
      <path d="M10.6 5.05 L10.35 5.35 Q9.6 5.7 9.25 6.4 L8.9 8.25 Q8.0 8.7 8.65 6.45 9.15 4.45 10.6 5.05" fill="#e3e1de" fill-rule="evenodd" stroke="none"/>
      <path d="M1.15 -2.85 Q6.4 -1.65 8.75 4.95 L7.7 5.35 Q6.3 -0.95 1.1 -2.4 L1.15 -2.85" fill="#282626" fill-rule="evenodd" stroke="none"/>
      <path d="M0.4 6.7 L5.7 6.7 5.15 7.55 0.35 7.6 0.4 6.7" fill="#282626" fill-rule="evenodd" stroke="none"/>
      <path d="M-10.2 6.55 Q-9.15 5.7 -9.1 4.9 L-7.2 4.95 Q-7.1 5.65 -7.55 6.0 L-10.2 6.55" fill="#585858" fill-rule="evenodd" stroke="none"/>
      <path d="M6.6 8.0 L9.7 9.1 Q10.95 9.95 9.85 9.65 L6.6 8.0" fill="#585858" fill-rule="evenodd" stroke="none"/>
      <path d="M-10.7 2.2 Q-9.85 1.55 -8.85 3.45 -8.6 3.95 -9.05 4.25 -9.5 4.55 -9.55 3.95 -9.6 3.05 -10.25 2.6 L-10.7 2.2" fill="#e3e1de" fill-rule="evenodd" stroke="none"/>
      <path d="M3.75 3.15 Q4.3 5.6 3.8 5.6 L1.3 5.3 1.8 -1.0 Q3.1 0.5 3.75 3.15" fill="#585858" fill-rule="evenodd" stroke="none"/>
      <path d="M-0.4 -2.95 L-0.05 -3.45 Q6.15 -2.9 8.25 3.15 5.75 -0.75 2.45 -2.25 L-0.4 -2.95" fill="#959792" fill-rule="evenodd" stroke="none"/>
      <path d="M-17.35 -3.2 Q-18.6 -0.05 -19.5 3.3 -21.05 3.05 -20.45 0.3 -19.8 -2.85 -16.45 -7.3 -13.55 -11.2 -14.65 -8.85 L-17.35 -3.2" fill="#ffffff" fill-rule="evenodd" stroke="none"/>
      <path d="M-12.3 2.6 Q-10.35 3.95 -12.45 3.45 -14.45 2.95 -16.25 1.2 -14.85 2.3 -12.3 2.6" fill="#ffffff" fill-rule="evenodd" stroke="none"/>
      <path d="M-18.7 5.75 L-16.95 6.05 -12.65 6.8 Q-15.6 7.0 -18.0 6.1 L-18.7 5.75" fill="#ffffff" fill-rule="evenodd" stroke="none"/>
      <path d="M16.6 -4.45 Q16.25 -8.5 18.0 -2.5 20.1 4.6 18.25 7.0 17.2 8.3 15.6 7.95 L16.5 6.8 Q17.75 5.2 17.5 3.2 L16.6 -4.45" fill="#ffffff" fill-rule="evenodd" stroke="none"/>
      <path d="M11.3 5.8 L13.4 5.9 16.7 5.45 Q13.55 8.15 11.25 7.5 10.4 7.25 10.4 6.7 10.35 6.15 11.3 5.8" fill="#ffffff" fill-rule="evenodd" stroke="none"/>
      <path d="M18.85 10.45 Q16.05 11.6 11.5 10.05 8.6 8.65 11.25 9.3 L15.9 10.5 18.85 10.45" fill="#ffffff" fill-rule="evenodd" stroke="none"/>
    </g>
  </defs>
</svg>
